X: 29
T:Missa Pange lingua / Kyrie
N: Derived from Jos0403a-Missa_Pange_lingua-Kyrie.krn
C: Josquin des Prez
%%abc-version 2.0
%%abcx-abcm2ps-target-version 5.9.1 (29 Sep 2008)
%%abc-creator hum2abc beta
%%abcx-conversion-date 2019/02/12 16:15:39
%%abc-edited-by Jesse Rodin
%%abc-edited-by Will Watson 01/09/2011; Victoria Chang 04/09/2011
%%abcx-initial-encoding-date 2011/04/09/
%%humdrum-veritas 845547380
%%humdrum-veritas-data 3733948041
%%linebreak <none>
%%barnumbers 0
L: 1/4
M: 3/1
Q: 1/2=120
%%staves [1 2 3 4]
V: 1 clef=treble
V: 2 clef=treble-8
V: 3 clef=treble-8
V: 4 clef=bass
K: C
[V:1] z12 | 
[V:2] z12 | 
[V:3] E4E4F4 | 
[V:4] z12 | 
[V:1] z12 | 
[V:2] z12 | 
[V:3] E8D2G2 | 
[V:4] A,,4A,,4B,,4 | 
[V:1] z12 | 
[V:2] z12 | 
[V:3] A2c4BAB3c | 
[V:4] A,,8G,,3A,, | 
[V:1] z12 | 
[V:2] z12 | 
[V:3] d2e3dc4B2 | 
[V:4] B,,2C,2E,2F,2D,4 | 
[V:1] E4E4F4 | 
[V:2] z12 | 
[V:3] c8A2B2 | 
[V:4] C,8D,4 | 
[V:1] E8D2G2 | 
[V:2] A4A4B4 | 
[V:3] c8G4 | 
[V:4] A,,8z4 | 
[V:1] A2c4BAB3c | 
[V:2] A8G3A | 
[V:3] z12 | 
[V:4] z12 | 
[V:1] d2e3dc4B2 | 
[V:2] B2c2e2f2d4 | 
[V:3] z12 | 
[V:4] z12 | 
[V:1] c3BA2G2F2ED | 
[V:2] c8A2B2 | 
[V:3] z12 | 
[V:4] C,4C,4D,4 | 
[V:1] E4z4z4 | 
[V:2] c3BG2A4^G2 | 
[V:3] c4c4d4 | 
[V:4] C,6A,,2B,,4 | 
[V:1] c4c4d4 | 
[V:2] A2e3cc2g2d2 | 
[V:3] c6A2B4 | 
[V:4] A,,4A,4G,4 | 
[V:1] c6A2B4 | 
[V:2] f2e3cf2d3e | 
[V:3] A3Bc2d4B2 | 
[V:4] z2A,4F,2G,4 | 
[V:1] A4c3BG2B2 | 
[V:2] f3ec2e4d2 | 
[V:3] d2c2A2c3BG2 | 
[V:4] D,2F,3E,C,D,E,F,G,2 | 
[V:1] A2c3BGABcd2 | 
[V:2] f2cdefg4f2- | 
[V:3] A4c3BG2_B2 | 
[V:4] F,3E,C,D,E,F,G,2D,2 | 
[V:1] c2A3GG4^F2 | 
[V:2] fecde2c2d4- | 
[V:3] A2c3BG2A4 | 
[V:4] F,3E,C,2E,2D,4 | 
[V:1] G12 ||  
[V:2] d12 ||  
[V:3] G12 ||  
[V:4] G,,12 ||  
[V:1] [M:2/1]z8 | 
[V:2] [M:2/1]z8 | 
[V:3] [M:2/1]z8 | 
[V:4] [M:2/1]C,8 | 
[V:1] z8 | 
[V:2] z8 | 
[V:3] z8 | 
[V:4] D,4F,4- | 
[V:1] z8 | 
[V:2] c8 | 
[V:3] z8 | 
[V:4] F,2E,D,E,4 | 
[V:1] z8 | 
[V:2] d4f4- | 
[V:3] z8 | 
[V:4] D,8- | 
[V:1] z8 | 
[V:2] f2ede4 | 
[V:3] z8 | 
[V:4] D,4C,4 | 
[V:1] z8 | 
[V:2] d8- | 
[V:3] z8 | 
[V:4] D,4F,4- | 
[V:1] z8 | 
[V:2] d4c4 | 
[V:3] z8 | 
[V:4] F,2E,D,E,2F,2- | 
[V:1] z8 | 
[V:2] d4f4- | 
[V:3] z8 | 
[V:4] F,E,D,C,D,4 | 
[V:1] z8 | 
[V:2] f2ede2c2- | 
[V:3] G8 | 
[V:4] C,8 | 
[V:1] z8 | 
[V:2] cBAGA4 | 
[V:3] A4c4- | 
[V:4] A,,8 | 
[V:1] G8 | 
[V:2] G4E4 | 
[V:3] c2BAB4 | 
[V:4] E,8 | 
[V:1] A4c4- | 
[V:2] e8- | 
[V:3] A8- | 
[V:4] z8 | 
[V:1] c2BAB4 | 
[V:2] e8- | 
[V:3] A4G4 | 
[V:4] z8 | 
[V:1] A8- | 
[V:2] e8 | 
[V:3] A4c4- | 
[V:4] z8 | 
[V:1] A4G4 | 
[V:2] z8 | 
[V:3] c2BAB2c2- | 
[V:4] z8 | 
[V:1] A4c4- | 
[V:2] z8 | 
[V:3] cBAGA4 | 
[V:4] z8 | 
[V:1] c2BAB4 | 
[V:2] z8 | 
[V:3] G4z2d2- | 
[V:4] z8 | 
[V:1] A3GA2G2- | 
[V:2] z8 | 
[V:3] dcdef2e2- | 
[V:4] z8 | 
[V:1] G2F2E4 | 
[V:2] z4A4 | 
[V:3] e2d4^c2 | 
[V:4] z8 | 
[V:1] D8 | 
[V:2] B4G4- | 
[V:3] d8- | 
[V:4] z8 | 
[V:1] z8 | 
[V:2] G2FEF4 | 
[V:3] d8 | 
[V:4] z4D,4 | 
[V:1] z8 | 
[V:2] E3FG2A2 | 
[V:3] z8 | 
[V:4] E,4C,4- | 
[V:1] z8 | 
[V:2] G2A4G2 | 
[V:3] z8 | 
[V:4] C,2B,,A,,B,,4 | 
[V:1] z8 | 
[V:2] A2F2E2A2- | 
[V:3] z8 | 
[V:4] A,,3B,,C,2D,2 | 
[V:1] z8 | 
[V:2] A2F2E4 | 
[V:3] z8 | 
[V:4] C,2D,4^C,2 | 
[V:1] z4A4 | 
[V:2] D4z2D2 | 
[V:3] z8 | 
[V:4] D,8 | 
[V:1] B4G4- | 
[V:2] GABcd2e2- | 
[V:3] z8 | 
[V:4] G,,2G,3F,E,D, | 
[V:1] G2FEF4 | 
[V:2] edc4B2 | 
[V:3] z4d4 | 
[V:4] C,2E,2D,4 | 
[V:1] E3FG2A2 | 
[V:2] c4e4- | 
[V:3] e4c4- | 
[V:4] C,8 | 
[V:1] G2A4G2 | 
[V:2] e2e2e4 | 
[V:3] c2BAB4 | 
[V:4] z4E,4 | 
[V:1] A2F2E2A2- | 
[V:2] c3de2f2 | 
[V:3] A8- | 
[V:4] F,3E,C,2D,2 | 
[V:1] A2F2E4 | 
[V:2] e2d4^c2 | 
[V:3] A8 | 
[V:4] C,2D,2A,,4 | 
[V:1] D6E2 | 
[V:2] d8- | 
[V:3] D4G4 | 
[V:4] _B,,4G,,4 | 
[V:1] F8- | 
[V:2] d8- | 
[V:3] (3F4D4A4 | 
[V:4] D,8- | 
[V:1] F8- | 
[V:2] d8- | 
[V:3] (3F4_B6A2 | 
[V:4] D,8- | 
[V:1] F8 ||  
[V:2] d8 ||  
[V:3] A8 ||  
[V:4] D,8 ||  
[V:1] [M:3/1]G6G2G4 | 
[V:2] [M:3/1]z12 | 
[V:3] [M:3/1]z12 | 
[V:4] [M:3/1]z12 | 
[V:1] E3FG2A3Gc2- | 
[V:2] c6c2c4 | 
[V:3] z12 | 
[V:4] z12 | 
[V:1] cBA2G2F2E4 | 
[V:2] A3Bc2d3cg2 | 
[V:3] z12 | 
[V:4] z12 | 
[V:1] D3EF2G2A2B2- | 
[V:2] f2d3cB2A2G2 | 
[V:3] z12 | 
[V:4] z12 | 
[V:1] BGd3cc4B2 | 
[V:2] g3fg2e2d4 | 
[V:3] G6G2G4 | 
[V:4] z12 | 
[V:1] c12 | 
[V:2] c12 | 
[V:3] E3FG2A3Gc2- | 
[V:4] C,6C,2C,4 | 
[V:1] z12 | 
[V:2] z12 | 
[V:3] cBA2G2F2E4 | 
[V:4] A,,3B,,C,2D,3C,G,2 | 
[V:1] z4z4A4 | 
[V:2] z12 | 
[V:3] DEFGA2G4^F2 | 
[V:4] F,2D,3C,B,,2A,,4 | 
[V:1] B6G2G4 | 
[V:2] d6e3de2 | 
[V:3] G6E2E4 | 
[V:4] z12 | 
[V:1] A6F2F4 | 
[V:2] c6d3cd2 | 
[V:3] F6D2A4 | 
[V:4] z4z4D,4 | 
[V:1] G6E2E4 | 
[V:2] B6c3Bc2 | 
[V:3] G2E2e8 | 
[V:4] E,6C,2C,4 | 
[V:1] F4G4E4 | 
[V:2] A4G4z2e2 | 
[V:3] d4B4c3B | 
[V:4] D,4E,4C,4 | 
[V:1] F2G4E2F2G2 | 
[V:2] d2B2c3BA2G2 | 
[V:3] A2G2e4d2B2 | 
[V:4] D,2E,4C,2D,2E,2 | 
[V:1] E2F2G2E2F2G2 | 
[V:2] e2d2B2e2d2B2 | 
[V:3] c2A2G2A3BG2 | 
[V:4] C,2D,2E,2C,2D,2E,2 | 
[V:1] E2F3EE4D2 | 
[V:2] e2d2B2c2A4 | 
[V:3] A4G2E2F4 | 
[V:4] C,2D,2E,2C,2D,4 | 
[V:1] E12- | 
[V:2] B4G6E2 | 
[V:3] E12- | 
[V:4] z2G,4E,2E,4 | 
[V:1] E12- | 
[V:2] E2e3dcBc4 | 
[V:3] E12- | 
[V:4] z2C,4A,,2A,,4 | 
[V:1] E12 |]  
[V:2] B12 |]  
[V:3] E12 |]  
[V:4] E,12 |]  



